images/linkedin.svg

<?xml version="1.0" encoding="UTF-8" standalone="no"?>
<svg width="50px" height="50px" viewBox="0 0 50 50" version="1.1" xmlns="http://www.w3.org/2000/svg" xmlns:xlink="http://www.w3.org/1999/xlink">
    <!-- Generator: Sketch 3.6.1 (26313) - http://www.bohemiancoding.com/sketch -->
    <title>noun_137196_cc</title>
    <desc>Created with Sketch.</desc>
    <defs></defs>
    <g id="Welcome" stroke="none" stroke-width="1" fill="none" fill-rule="evenodd">
        <g id="Full-Width-Page" transform="translate(-246.000000, -281.000000)" fill="#C5C5C5">
            <g id="noun_137196_cc" transform="translate(246.000000, 281.000000)">
                <g id="Group">
                    <path d="M16.2195122,12.9268293 L16.2195122,35.3658537 L27.5609756,35.3658537 L27.5609756,36.3414634 L15.2439024,36.3414634 L15.2439024,12.9268293 L16.2195122,12.9268293 L16.2195122,12.9268293 Z M31.402439,12.9268293 L33.0487805,12.9268293 L33.0487805,14.6341463 L31.402439,14.6341463 L31.402439,12.9268293 L31.402439,12.9268293 Z M32.7439024,18.4146341 L32.7439024,36.402439 L31.7682927,36.402439 L31.7682927,18.4146341 L32.7439024,18.4146341 L32.7439024,18.4146341 Z M25,49.8170732 C11.2804878,49.8170732 0.182926829,38.7195122 0.182926829,25 C0.182926829,11.2804878 11.2804878,0.12195122 25,0.12195122 C38.7195122,0.12195122 49.8780488,11.2804878 49.8780488,25 C49.8780488,38.7195122 38.7195122,49.8170732 25,49.8170732 L25,49.8170732 Z M25,1.03658537 C11.8292683,1.03658537 1.03658537,11.7682927 1.03658537,25 C1.03658537,38.2317073 11.8292683,48.902439 25,48.902439 C38.1707317,48.902439 48.9634146,38.1707317 48.9634146,25 C48.9634146,11.8292683 38.1707317,1.03658537 25,1.03658537 L25,1.03658537 Z" id="Shape"></path>
                </g>
            </g>
        </g>
    </g>
</svg>

<svg width="50" height="50" viewBox="0 0 50 50" xmlns="http://www.w3.org/2000/svg"><title>noun_137196_cc</title><path d="M16.22 12.927v22.44h11.34v.974H15.245V12.93h.976zm15.182 0h1.647v1.707H31.4v-1.707zm1.342 5.488v17.987h-.976V18.415h.976zM25 49.817C11.28 49.817.183 38.72.183 25S11.28.122 25 .122 49.878 11.28 49.878 25 38.72 49.817 25 49.817zm0-48.78C11.83 1.037 1.037 11.767 1.037 25 1.037 38.232 11.83 48.902 25 48.902c13.17 0 23.963-10.73 23.963-23.902C48.963 11.83 38.17 1.037 25 1.037z" fill="#C5C5C5" fill-rule="evenodd"/></svg>
